X:1
T:James Gibb editions
T:Simile est regnum coelorum - Guerrero
T:#
%%score [ 1 2 3 4 ]
L:1/8
Q:1/4=200
M:none
K:G
V:1 treble nm="Alto" snm="A"
V:2 treble-8 nm="Tenor I" snm="T I"
V:3 treble-8 nm="Tenor II" snm="T II"
V:4 bass nm="Bass" snm="B"
V:1
"^Simile est regnum caelorum""^Francisco Guerrero\n(1528-99)""^Matthew 20:1-4" D8 D4 D4 | A12 A4 | %2
w: Si- mi- le|est re-|
 F4 G4 (A8 | B8 A6 G2 | A4 F4 E8) | F8 z8 | z8 D8- | D4 D4 D8 | G8 F4 (A4- | %9
w: gnum coe- lo\-|||rum|ho-|* mi- ni|pa- tri fa\-|
 A2 G2 F2 E2 F2 E2) G4- | G4 F4 G8 | z16 | z16 | A8 B8- | B4 B4 A8 | G12 G4 | c8 B4 B4 | G4 A4 D8 | %18
w: * * * * * * mi\-|* li- as,|||qui e\-|* xi- it|pri- mo|ma- ne con-|du- ce- re|
 E8 F4 (G4- | G2 A2 B2 G2 A4) A4 | G8 z4 B4 | G4 A4 D4 d4- | d4 c4 A4 (B4- | B2 A2 G4) F4 A4- | %24
w: o- pe- ra\-|* * * * * ri-|os, con-|du- ce- re o\-|* pe- ra- ri\-|* * * os in|
 A4 B6 A2 (G4- | G4 F2 E2 F4) (D4- | D4 ^C4) D8 | z16 | z4 D4 D4 E4 | F4 G4 E4 F4 | %30
w: * vi- ne- am|* * * * su\-|* * am.||Con- ven- ti-|o- ne au- tem|
 (G6 A2 B2 c2 d4- | d4 c8 B4- | B4 A4) B8 | z4 A8 G4- | G4 F4 E4 E4 | D16 | z8 z4 d4- | %37
w: fa\- * * * *||* * cta|cum o\-|* pe- ra- ri-|is,|cum|
 d4 (c8 B2 A2) | B4 (A8 G4 | A4 G6 FE) F4 | G4 D4 E4 G4- | G4 G4 G4 F4 | E16- | E16 | D8 z8 | %45
w: * o\- * *|pe- ra\- *|* * * * ri-|is ex de- na\-|* ri- o di-|ur\-||no,|
 G8 A8 | B8 A8 | (D8 E8) | F8 G8 | G16 | z16 | z16 | z4 c4 c4 c4 | (A2 B2 c2 A2 B2 A2 G2 F2 | %54
w: mi- sit|e- os,|mi\- *|sit e-|os|||in vi- ne-|am * * * * * * *|
 E4 D4) G8 | F4 D4 E4 (G4- | G4 F2 E2) F8- | F4 (D4 E4 F4- | F2 E2 D8 ^C4) | D16 || z16 | z16 | %62
w: * * su-|am, in vi- ne\-|* * * am|* su\- * *||am.|||
 z16 | G8 G8 | A8 E4 G4- | G4 E4 F4 (A4- | A4 G2 F2) E4 E4 | D4 d6 c2 B4- | B4 A4 (G6 F2 | %69
w: |Et e-|gres- sus cir\-|* ca ho- ram|* * * ter- ti-|am, cir- ca ho\-|* ra ter\- *|
 E2 D2 E8) D4 | E8 z8 | z16 | z8 z4 G4- | G4 D4 G4 A4 | (B12 A2 G2 | F16) | z8 z4 A4- | %77
w: * * * ti-|am||vi\-|* dit a- li-|os, * *||vi\-|
 A4 A4 F4 G4 | (A2 G2 F2 E2 F2 D2) G4- | G4 F4 G8- | G8 z8 | G8 G4 G4 | =F8 E4 C4- | C4 C4 D8 | %84
w: * dit a- li-|os, * * * * * a\-|* li- os||stan- tes in|fo- ro o\-|* ti- o-|
 E16 | z16 | E8 G4 G4 | (G6 F2 E8) | D8 z8 | d8 B8 | z4 d8 (B4- | B2 A2 B2 G2) A4 (c4- | %92
w: sos,||et di- xit|il\- * *|lis:|i- te,|i- te|* * * * et vos|
 c4 B2 A2 B4) A4 | G4 G8 F4 | E8 F8- | F8 z4 D4- | D4 D4 E8 | F12 G4- | G4 A4 B4 d4- | %99
w: * * * * in|vi- ne- am|me- am;|* et,|* quod ju-|stum fu\-|* e- rit, da\-|
 d4 G4 (B4 A4- | A2 G2 G8 F2 E2 | F2 G2) A4 F4 (G4- | G2 F2 F2 ED) E4 A4- | %103
w: * bo vo\- *||* * bis, da- bo|* * * * * vo- bis,|
 A4 D4 F4[Q:1/4=198] (E4- |[Q:1/4=196] E2[Q:1/4=195] D2[Q:1/4=192] D8[Q:1/4=189] ^C4) | %105
w: * da- bo vo\-||
"^#"[Q:1/4=183] D16- |[Q:1/4=174] D16 |[Q:1/4=170] D16 |] %108
w: bis.|||
V:2
 z16 | z8 d8 | d4 B4 c4 d4 | G4 (g8 f2 e2 | f4) (d8 ^c4) | (d6 =c2 A4) B4 | (E4 F4 G6 F2) | %7
w: |Si-|mi- le est re-|gnum coe\- * *|* lo\- *|rum, * * coe-|lo\- * * *|
 D8 z4 G4 | B4 ^c4 d8 | A4 (d6 =c2 B4) | A4 A4 G8 | z16 | z16 | z16 | d16 | e8 d8 | c4 e8 d4 | %17
w: rum ho-|mi- ni pa-|tri fa\- * *|mi- li- as,||||qui|e- xi-|it pri- mo|
 (e4 A4 B2 c2 d4- | d2 B2 ^c4 d2 =c2 B2 A2 | B8) A8 | z4 e4 c4 d4 | G4 c8 B4 | e4 e4 (d2 c2 B2 A2 | %23
w: ma\- * * * *||* ne|con- du- ce-|re o- pe-|re- ri- os * * *|
 B4 ^c4 d8) | z4 d8 e4 | e4 (d6 c2) B4 | A8 z4 A4 | B4 c4 d4 B4 | c4 A4 (B6 c2 | d4) e4 (c6 d2 | %30
w: |in vi-|ne- am * su-|am. Con-|ven- ti- o- ne|au- tem fa\- *|* cta, fa\- *|
 e2 f2 g8 f4- | f4 e4) d8 | z8 z4 d4- | d4 c8 B4 | A4 A4 G8 | z4 G8 (F4- | F4 E2 D2 E4) D4 | %37
w: |* * cta|cum|* o- pe-|ra- ri- is,|cum o\-|* * * * pe-|
 E6 F2 G8 | d8 c8- | c4 B4 A4 A4 | G16 | z4 G8 A4 | c4 c4 (c6 B2 | A2 G2 A6 G2) G4- | G4 F4 G8- | %45
w: ra- ri- is,|cum o\-|* pe- ra- ri-|is|ex de-|na- ri- o *|* * * * di\-|* ur- no,|
 G8 z4 d4- | d4 e8 (f4- | f2 e2 d8 ^c4 | d16 | e8 z4 d4 | d4 d4 (B2 c2 d2 B2 | c4) B4 A4 B4 | %52
w: * mi\-|* sit e\-|||os in|vi- ne- am * * *|* su- am, in|
 G4 A6 G2) G4- | G4 F4 G4 B4 | B4 B4 (G2 A2 B2 G2 | A4) (B8 G4) | A8 z4 d4 | d8 c4 (A4- | %58
w: vi- ne\- * am|* su- am, in|vi- ne- am * * *|* su\- *|am, in|vi- ne- am|
 A2 GF G4) A8 | A16 || d8 d8 | e8 B4 d4- | d4 B4 c4 (e4- | e4 d2 c2 B2 A2 B4) | %64
w: * * * * su-|am.|Et e-|gres- sus cir\-|* ca ho- ram||
 (A2 B2 c2 d2 e2 c2 d4- | d4) ^c4 d4 A4 | c4 B8 A4 | (B4 G2 A2 B2 c2 d2 B2 | c2 B2 c2 d2 e6 d2 | %69
w: ter\- * * * * * *|* ti- am, cir-|ca ho- ram|ter\- * * * * * *||
 c2 B2 c2 B2 A2 G2) F4 | E4 e8 c4 | d4 A4 (d4 e2 d2 | c2 B2) c4 B8- | B8 z4 d4- | d4 d4 B4 ^c4 | %75
w: * * * * * * ti-|am, cir- ca|ho- ram ter\- * *|* * ti- am|* vi\-|* dit a- li-|
 d8 z4 d4- | d4 c4 (B4 A4- | A2 G2 A2 F2 B8) | A8 d8 | z8 z4 d4 | d4 d4 d8 | e8 e4 e4 | %82
w: os, vi\-|* dit a\- *||li- os|stan-|tes in fo-|ro o- ti-|
 (d6 c2) B4 (A2 G2 | A2 B2) c8 B4 | c8 z4 c4 | e4 e4 (e6 d2 | c8) B8 | z4 B4 G4 A4 | (B8 A8) | %89
w: o\- * sos, o\- *|* * ti- o-|sos, et|di- xit il\- *|* lis,|et di- xit|il\- *|
 B8 d8 | B8 z8 | g8 e4 f4 | g12 f4 | e4 e4 e4 (d4- | d4 ^c4) d8- | d8 z8 | z8 z4 A4- | %97
w: lis: i-|te,|i- te et|vos in|vi- ne- am me\-|* * am;||et,|
 A4 A4 B6 A2 | B4 c4 d8 | z4 d4 B4 e4 | c8 z4 d4- | d4 A4 (B6 c2 | d2 B2 d8 ^c4) | d8 z4 B4- | %104
w: * quod ju- stum|fu- e- rit,|da- bo vo-|bis, da\-|* bo vo\- *||bis, da\-|
 B4 G4 A8 | F4 (A6 G2 F2 E2 | F4) A4 B8 | A16 |] %108
w: * bo vo-|bis, da\- * * *|* bo vo-|bis.|
V:3
 z16 | z16 | z16 | z8 D8 | D4 D4 A8- | A4 A4 F4 G4 | (A8 B8- | B4 A2 G2 A4 B4 | G8) A8 | z8 D8- | %10
w: |||Si-|mi- le est|* re- gnum coe-|lo\- *||* rum|ho\-|
 D4 D4 D8 | G8 F4 (A4- | A2 G2 F2 E2 F2 E2) G4- | G4 F4 G8 | z8 A8 | B12 B4 | A4 G8 G4 | c8 B4 B4 | %18
w: * mi- ni|pa- tri fa\-|* * * * * * mi\-|* li- as,|qui|e- xi-|it pri- mo|ma- ne con-|
 G4 A4 D4 (E4- | E2 F2 G8) F4 | (G2 F2 E2 D2 E4) D4 | E8 z4 G4 | A8 F4 G4 | E8 D8 | z8 G8 | %25
w: du- ce- re o\-|* * * pe-|re\- * * * * ri-|os in|vi- ne- am|su- am,|in|
 A8 F4 G4 | E8 D8 | z16 | z16 | z16 | z4 G4 G4 A4 | B4 c4 A4 B4 | c8 B8 | z16 | z4 d8 (c4- | %35
w: vi- ne- am|su- am.||||Con- ven- ti-|o- ne au- tem|fa- cta||cum o\-|
 c4 B2 A2) B4 A4- | A4 A4 G8 | z8 z4 G4- | G4 =F8 E4 | =F4 G4 D8 | z16 | z16 | G8 A8 | %43
w: * * * pe- ra\-|* ri- is,|cum|* o- pe-|ra- ri- is|||ex de-|
 c4 c4 (c6 B2 | A4) (B6 G2 c4 | B4) (G8 F4) | G8 z8 | z16 | A8 (B6 A2 | B4) (c8 B2 A2) | B8 z8 | %51
w: na- ri- o *|* di\- * *|* ur\- *|no,||mi- sit *|* e\- * *|os|
 z16 | z16 | z8 z4 G4 | G4 G4 (E2 F2 G2 E2 | F4 G4) E8 | D8 z4 A4 | B4 B4 (A2 G2 F2 E2 | D8) E8 | %59
w: ||in|vi- ne- am * * *|* * su-|am, in|vi- ne- am * * *|* su-|
 D16 || z16 | z16 | z16 | z16 | z16 | z16 | z16 | G8 G8 | A8 E4 G4- | G4 E4 F4 (A4- | %70
w: am.||||||||Et e-|gres- sus cir\-|* ca ho- ram|
 A4 G2 F2) E4 E4 | (D2 E2 F2 G2 A2 F2) G4- | G4 F4 G8 | z4 G8 D4 | G6 F2 (G4 A4 | B4 A2 G2 A4) F4 | %76
w: * * * ter- ti-|am, * * * * * ter\-|* ti- am|vi- dit|a- li- os, *|* * * * vi-|
 G4 G8 (F2 E2) | F8 D4 E4 | (F2 E2 F2 G2 A4) B4 | (A8 G4) B4 | B4 B4 A8 | B4 c8 c4 | A8 ^G4 A4- | %83
w: dit a- li\- *|os, vi- dit|a\- * * * * li-|os * stan-|tes in fo-|ro o- ti-|o- sos, o\-|
 A4 !courtesy!=G4 (A4 =F4 | G8 A8 | z4 E4 G4 G4 | A8 D8 | z4 D4 E4 E4 | (F4 G8 F4) | G16 | d8 B8 | %91
w: * ti- o\- *|* sos,|et di- xit|il- lis,|et di- xit|il\- * *|lis:|i- te,|
 e8 c4 c4 | d8 d4 d4 | B4 c6 B2 A4- | A4) G4 A8 | z4 A8 A4 | B6 A2 B4 ^c4 | d8 z8 | z8 G8 | %99
w: i- te et|vos in vi-|ne- am * *|* me- am;|et, quod|ju- stum fu- e-|rit,|da-|
 (B6 c2 d4) (c4- | c2 B2 G4) A8 | z4 d8 G4 | B8 A8 | (D2 E2 F2 G2 A2 F2) (G4- | G2 F2 D4) E8 | %105
w: bo * * vo\-|* * * bis,|da- bo|vo- bis,|da\- * * * * * bo|* * * vo-|
 D8 z4 A4- | A4 D4 (F4 G4- | G4 F2 E2) F8 |] %108
w: bis, da\-|* bo vo\- *|* * * bis.|
V:4
 z16 | z16 | z16 | z16 | z16 | D,8 D,4 B,,4 | C,4 D,4 G,,4 (G,4- | G,4 F,2 E,2 F,4 G,4) | %8
w: |||||Si- mi- le|est re- gnum coe\-||
 E,8 D,8- | D,8 z8 | z8 G,,8 | B,,4 C,4 D,8 | A,,4 (D,6 C,2 B,,4) | A,,4 A,,4 G,,8 | G,8 F,4 F,4 | %15
w: lo- rum||ho-|mi- ni pa-|tri fa\- * *|mi- li- as,|qui e- xi-|
 (E,6 F,2 G,4) G,,4 | (A,,2 B,,2 C,2 D,2 E,2 F,2 G,4) | (E,4 F,4) G,8 | z16 | z4 E,4 C,4 D,4 | %20
w: it * * pri-|mo * * * * * *|ma\- * ne||con- du- ce-|
 G,,4 C,8 B,,4 | C,4 A,,4 G,,8 | z16 | G,8 A,8 | F,4 (G,6 F,2 E,2 D,2 | C,4) (D,8 G,,4) | %26
w: re o- pe-|ra- ri- os||in vi-|ne- am * * *|* su\- *|
 A,,8 z4 D,4 | D,4 E,4 F,4 G,4 | E,4 F,4 (G,8 | F,4 E,4 A,8) | E,8 z4 D,4 | D,4 E,4 F,4 G,4 | %32
w: am. Con-|ven- ti- o- ne|au- tem fa\-||cta, con-|ven- ti- o- ne|
 E,4 F,4 (G,6 F,2 | G,4) A,4 (A,,4 B,,4) | C,4 D,4 E,6 F,2 | G,8 z4 D,4- | D,4 C,8 B,,4 | %37
w: au- tem fa\- *|* cta cum *|o- pe- ra- ri-|is, cum|* o- pe-|
 A,,4 A,,4 G,,8 | z16 | z8 z4 D,4 | (E,4 G,4) (C,2 D,2 E,2 F,2 | G,2 F,2 E,2 D,2) E,4 D,4 | %42
w: ra- ri- is||ex|de\- * na\- * * *|* * * * ri- o|
 C,6 B,,2 A,,8 | z8 C,8 | D,8 E,8- | E,8 D,8 | z4 G,4 A,8 | B,8 A,8 | D,8 (G,6 F,2 | E,4) C,4 G,8 | %50
w: di- ur- no,|mi-|sit e\-|* os,|mi- sit|e- os,|mi- sit *|* e- os|
 z4 G,4 G,4 G,4 | (E,2 F,2 G,2 E,2 F,2 E,2 D,2 C,2 | B,,4) (A,,2 B,,2 C,2 B,,2 A,,2 G,,2 | %53
w: in vi- ne-|am * * * * * * *|* su\- * * * * *|
 A,,8) G,,8 | z16 | z16 | z4 D,4 D,4 D,4 | (B,,2 C,2 D,2 B,,2 C,4 D,4) | (B,,8 A,,8) | D,16 || %60
w: * am,|||in vi- ne-|am * * * * *|su\- *|am.|
 z16 | z8 G,8 | G,8 A,8 | E,4 G,8 E,4 | F,4 (A,8 G,2 F,2) | E,4 E,4 D,8 | A,,4 B,,4 C,6 C,2 | %67
w: |Et|e- gres-|sus cir- ca|ho- ram * *|ter- ti- am,|ho- ra ter- ti-|
 G,,16 | z8 C,8 | C,8 D,8 | A,,4 C,8 A,,4 | B,,4 (D,8 C,2 B,,2) | A,,4 A,,4 G,,8- | G,,8 z8 | z16 | %75
w: am,|et|e- gres-|sus cir- ca|ho- ram * *|ter- ti- am|||
 z4 D,8 D,4 | B,,4 C,4 D,8- | D,8 z8 | z4 D,8 G,,4 | C,4 D,4 E,4 G,4 | G,4 G,4 =F,8 | E,4 C,8 C,4 | %82
w: vi- dit|a- li- os,||vi- dit|a- li- os stan-|tes in fo-|ro o- ti-|
 D,8 E,4 =F,4- | F,4 E,4 D,8 | C,8 z4 A,,4 | C,4 C,4 (C,6 B,,2 | A,,8) G,,8 | z4 G,,4 C,4 C,4 | %88
w: o- sos, o\-|* ti- o-|sos, et|di- xit il\- *|* lis,|et di- xit|
 (B,,4 G,,4 D,8) | G,,16 | z8 G,8 | E,8 A,8 | G,12 D,4 | (E,2 D,2 C,2 B,,2 C,4) D,4 | E,4 E,4 D,8 | %95
w: il\- * *|lis:|i-|te et|vos in|vi\- * * * * ne-|am me- am;|
 z4 D,8 D,4 | G,6 F,2 G,4 A,4 | D,8 z8 | z16 | G,12 C,4 | E,8 D,8- | D,8 z8 | z16 | z4 D,8 G,,4 | %104
w: et, quod|ju- stum fu- e-|rit,||da- bo|vo- bis,|||da- bo|
 B,,8 A,,8 | z8 D,8 | D,8 (B,,4 G,,4) | D,16 |] %108
w: vo- bis,|da-|bo vo\- *|bis.|

